Catalina-light/actions/16/format-text-underline-symbolic.svg

<?xml version="1.0" encoding="UTF-8" standalone="no"?>
<svg
   xmlns:dc="http://purl.org/dc/elements/1.1/"
   xmlns:cc="http://creativecommons.org/ns#"
   xmlns:rdf="http://www.w3.org/1999/02/22-rdf-syntax-ns#"
   xmlns:svg="http://www.w3.org/2000/svg"
   xmlns="http://www.w3.org/2000/svg"
   xmlns:sodipodi="http://sodipodi.sourceforge.net/DTD/sodipodi-0.dtd"
   xmlns:inkscape="http://www.inkscape.org/namespaces/inkscape"
   viewBox="0 0 16 16"
   id="svg3197"
   version="1.1"
   inkscape:version="0.91 r13725"
   sodipodi:docname="format-text-underline-symbolic.svg">
  <metadata
     id="metadata3205">
    <rdf:RDF>
      <cc:Work
         rdf:about="">
        <dc:format>image/svg+xml</dc:format>
        <dc:type
           rdf:resource="http://purl.org/dc/dcmitype/StillImage" />
      </cc:Work>
    </rdf:RDF>
  </metadata>
  <sodipodi:namedview
     pagecolor="#ffffff"
     bordercolor="#666666"
     borderopacity="1"
     objecttolerance="10"
     gridtolerance="10"
     guidetolerance="10"
     inkscape:pageopacity="0"
     inkscape:pageshadow="2"
     inkscape:window-width="640"
     inkscape:window-height="480"
     id="namedview3203"
     showgrid="false"
     inkscape:zoom="41.1875"
     inkscape:cx="3.6783005"
     inkscape:cy="8"
     inkscape:current-layer="svg3197" />
  <defs
     id="defs3051">
    <style
       type="text/css"
       id="current-color-scheme">
      .ColorScheme-Text {
        color:#bebebe;
      }
      </style>
  </defs>
  <path
     style="color:#bebebe;fill:currentColor;fill-opacity:1;stroke:none"
     class="ColorScheme-Text"
     d="m 4.3333333,2 0,1.8461538 5.5000001,0 c 0.3924796,0 0.9166666,0.5668985 0.9166666,0.923077 l 0,0.9230769 -4.5833333,0 c -0.8426641,0 -1.5909667,0.3544246 -2.0625,0.8942308 -0.4715334,0.5398061 -0.6933575,1.2098123 -0.6875,1.875 0.0055,0.6651875 0.2465191,1.3409635 0.7161458,1.8749995 0.4696266,0.534037 1.2012642,0.894231 2.0338542,0.894231 l 4.5833333,0 0.916667,0 0.916666,0 0,-0.778846 c 0.0143,-0.08649 0,-0.144231 0,-0.144231 l 0,-0.923077 0,-4.6153842 C 12.583333,3.2606092 11.373516,2 9.8333334,2 L 4.3333333,2 Z m 1.8333334,5.5384615 4.5833333,0 0,1.8461535 -4.5833333,0 C 5.8019525,9.384615 5.6469992,9.283271 5.5078126,9.125 5.3686259,8.9667292 5.2522734,8.7194277 5.25,8.4615385 5.2481667,8.2036492 5.3459475,7.9505785 5.4791667,7.7980769 5.6123859,7.6455754 5.7795033,7.5384615 6.1666667,7.5384615 Z M 2.5,12.153846 2.5,14 l 11,0 0,-1.846154 -11,0 z"
     id="path3201"
     inkscape:connector-curvature="0" />
</svg>

<svg version="1.1" viewBox="0 0 16 16" xmlns="http://www.w3.org/2000/svg">
<defs>
<style id="current-color-scheme" type="text/css">.ColorScheme-Text {
        color:#bebebe;
      }</style>
</defs>
<path class="ColorScheme-Text" d="m4.3333 2v1.8462h5.5c0.39248 0 0.91667 0.5669 0.91667 0.92308v0.92308h-4.5833c-0.84266 0-1.591 0.35442-2.0625 0.89423-0.47153 0.53981-0.69336 1.2098-0.6875 1.875 0.0055 0.66519 0.24652 1.341 0.71615 1.875 0.46963 0.53404 1.2013 0.89423 2.0339 0.89423h6.4166v-0.77885c0.0143-0.08649 0-0.14423 0-0.14423v-5.5385c0-1.5086-1.2098-2.7692-2.75-2.7692h-5.5zm1.8333 5.5385h4.5833v1.8462h-4.5833c-0.36471 0-0.51967-0.10134-0.65885-0.25962-0.13919-0.15827-0.25554-0.40557-0.25781-0.66346-0.0018333-0.25789 0.095948-0.51096 0.22917-0.66346 0.13322-0.1525 0.30034-0.25962 0.6875-0.25962zm-3.6667 4.6154v1.8462h11v-1.8462h-11z" color="#bebebe" fill="currentColor"/>
</svg>
